X:1
T:Morgengesang
T:Friedrich Rückert
T:Niels Wilhelm Gade
T: Morgengesang
T:Arr. von No. 7 aus Erlkönigs Tochter* für gem. Chor 
T:CPDL   —   Creative Commons Attribution Non Commercial 3.0
T:CPDL   —   Creative Commons Attribution Non Commercial 3.0
C:Niels Wilhelm Gade
Z:Friedrich Rückert
Z:CPDL   —   Creative Commons Attribution Non Commercial 3.0
%%score [ ( 1 2 ) 3 4 ]
L:1/8
Q:1/4=144
M:2/2
K:Bb
V:1 treble nm="Sopran\nAlt"
V:2 treble 
V:3 treble-8 nm="Tenor"
V:4 bass nm="Bass"
V:1
"^Getragen"!p! B,4 | F4 D4 |!<(! (B,4 D2)!<)!!>(! F2 | B6!>)! c2 | c4!mf! F4 |!<(! B4 c4!<)! | %6
w: Im|Os- ten|geht _ die|Son- ne|auf, sie|färbt die|
!>(! d4 c4!>)! | B8- | B2 z2 |!p! F4 | G4 F4 | B4 A4 | G6 F2 | F4 B4 | B4 c4 | d4 c4 | B8- | %17
w: gold'- ne|Wolk’,|_|zieht|ü- ber|Meer und|Ber- ges-|höh’, zieht|ü- ber|Land und|Volk.|
 B2 z2 | z4 | z8 | z4 d4 | d6 c2 | B4 A4 | B4 d4 | c4 F4 | B6 A2 | G4 G4 | A8 | z2!f! F2 A2 c2 | %29
w: _|||Sie|kommt vom|fer- nen,|schö- nen|Strand, aus|Pa- ra-|dies- es|Schoß.|Sie brin- get|
 e6 d2 | (d2 c2)!<(! (B2 d2)!<)! |!>(! e6!>)! d2 | c4 c4 | B4 A4 | G4 B4 | (A4 d4 | c4) =B4 | %37
w: Le- ben,|Le- * ben, _|Licht und|Lust für|al- le,|klein und|groß, _|_ für|
!p! (c8 | B4) B4 | A8- | !fermata!A4!f! F4 | G4 F4 | B4 B4 | B4 A4 | B4 F4 | B4 c4 | d4 c4 | %47
w: klein|_ und|groß.|_ Ja,|Got- tes|Sonn’ er-|füllt die|Erd’ mit|wah- rer|Him- mels-|
 B6 z2 | z4 F4 | B4 G4 | F4 B4 | d6 c2 | c4 d4 | f4 e4 | d4 c4 | B8- | B2 z2 |] %57
w: pracht,|sie|schen- ket|Lind’- rung|je- dem|Schmerz, er-|hellt des|Kum- mers|Nacht.|_|
V:2
 B,4 | F4 D4 | (B,4 D2) C2 | D6 F2 | F4 F4 | D4 G4 | F4 F4 | D8- | D2 x2 | F4 | G4 F4 | B4 A4 | %12
 G6 F2 | F4 D4 | F4 G4 | F4 F4 | D8- | D2 x2 | x4 | x8 | x4 D4 | G4 G4 | G4 D4 | D4 =E4 | F4 F4 | %25
 D6 C2 | D4 C4 | C8 | x2 F2 F2 F2 | (F2 A4) B2 | F4 F4 | F6 F2 | F4 F4 | B,4 C4 | D4 C4 | (C4 F4 | %36
 C4) F4 | F8- | F4 =E4 | C8- | C4 F4 | G4 F4 | B4 D4 | E4 E4 | D4 F4 | G4 G4 | F4 F4 | D6 x2 | %48
 x4 F4 | D4 E4 | F4 F4 | F6 F2 | F4 F4 | _A4 G4 | F4 F4 | D8- | D2 x2 |] %57
V:3
!p! B4 | F4 D4 |!<(! B6!<)!!>(! c2 | B6!>)! A2 | A4!mf! F4 |!<(! G4 B4!<)! |!>(! B4 A4!>)! | F8- | %8
w: Im|Os- ten|geht die|Son- ne|auf, sie|färbt die|gold'- ne|Wolk’,|
 F2 z2 |!p! F4 | G4 F4 | B4 A4 | G6 F2 | F4 B4 | _A4 G4 | B4 A4 | F8- | F2 z2 | d4 | d6 c2 | %20
w: _|zieht|ü- ber|Meer und|Ber- ges-|höh’, zieht|ü- ber|Land und|Volk.|_|Sie|kommt vom|
 B4 A4 | B6 A2 | d4 ^F4 | G4 B4 | A4 F4 | F6 F2 | F4 =E4 | F8 | z2!f! F2 c2 A2 | c6 B2 | %30
w: fer- nen,|schö- nen|Strand, vom|schö- nen|Strand, aus|Pa- ra-|dies- es|Schoß.|Sie brin- get|Le- ben,|
 A4!<(! B4!<)! |!>(! (B4 A2)!>)! B2 | F4 F4 | F4 F4 | F4 =E4 | F8- | F4 G4 |!p! G8- | G4 G4 | F8- | %40
w: Le- ben,|Licht _ und|Lust für|al- le,|klein und|groß,|_ für|klein|_ und|groß.|
 !fermata!F4!f! F4 | G4 F4 | B4 F4 | F4 F4 | F4 B4 | d4 e4 | B4 A4 | F6 z2 | z4 B4 | B4 B4 | %50
w: _ Ja,|Got- tes|Sonn’ er-|füllt die|Erd’ mit|wah- rer|Him- mels-|pracht,|sie|schen- ket|
 B4 d4 | B6 A2 | A4 B4 | B4 B4 | B4 =A4 | F8- | F2 z2 |] %57
w: Lind’- rung|je- dem|Schmerz, er-|hellt des|Kum- mers|Nacht.|_|
V:4
!p! B,,4 | F,4 D,4 |!<(! (B,,4 B,2)!<)!!>(! A,2 | G,6!>)! F,2 | F,4!mf! F,4 |!<(! G,4 E,4!<)! | %6
w: ||||||
!>(! F,4 F,4!>)! | B,,8- | B,,2 z2 |!p! F,4 | G,4 F,4 | B,4 A,4 | G,6 F,2 | F,4 B,,4 | D,4 E,4 | %15
w: |||||||||
 F,4 F,4 | B,,8- | B,,2 z2 | B,4 | B,6 A,2 | G,4 ^F,4 | G,4 G,4 | G,4 C,4 | B,,4 G,,4 | A,,4 D,4 | %25
w: ||||||||||
 G,,6 A,,2 | B,,4 C,4 | F,8 | z2!f! F,2 F,2 C,2 | (A,,2 [F,,F,]4) F,2 | E,4!<(! D,4!<)! | %31
w: ||||||
!>(! C,6!>)! B,,2 | A,,4 A,,4 | D,4 C,4 | B,,4 C,4 | (F,4 B,,4 | A,,4) D,4 |!p! C,8- | C,4 C,4 | %39
w: ||||||||
 F,8- | !fermata!F,4!f! F,4 | G,4 F,4 | B,4 B,,4 | C,4 F,4 | B,,4 D,4 | G,4 E,4 | F,4 F,4 | %47
w: ||||||||
 B,,4 B,,4 | F,4 D,4 | B,,4 E,4 | D,4 B,,4 | F,4 F,4 | F,4 B,,4 | D,4 E,4 | F,4 F,4 | B,,8- | %56
w: * sie|schen- ket,||||||||
 B,,2 z2 |] %57
w: |

